public/topics/34.svg

<svg width="250" height="250" viewBox="0 0 250 250" fill="none" xmlns="http://www.w3.org/2000/svg">
<rect width="250" height="250" rx="30" fill="#99CC33"/>
<path d="M73 115C83.9333 117.4 93 122.133 100.2 129.2C107.4 136.267 111 144.467 111 153.8C111 159.4 109.667 164.867 107 170.2C102.733 178.733 96.3333 185.133 87.8 189.4C79.4 193.667 69.6667 195.8 58.6 195.8C51.6667 195.8 45.4667 194.533 40 192C34.5333 189.333 29.1333 185.8 23.8 181.4C21.8 179.533 20 176.867 18.4 173.4C16.9333 169.933 16.2 167.067 16.2 164.8C16.2 161.867 17 159.533 18.6 157.8C20.3333 155.933 22.6 155 25.4 155C28.2 155 30.4 155.667 32 157C33.6 158.333 35.5333 160.467 37.8 163.4C39.9333 166.2 41.8667 168.467 43.6 170.2C45.3333 171.8 47.6667 173.2 50.6 174.4C53.5333 175.6 57.2 176.2 61.6 176.2C70.5333 176.2 77.5333 174 82.6 169.6C87.6667 165.2 90.2 159 90.2 151C90.2 147.933 88.5333 144.867 85.2 141.8C81.8667 138.6 78.7333 136.333 75.8 135C74.0667 134.067 70.8667 133.133 66.2 132.2C59.9333 130.6 55.2 129.067 52 127.6C48.9333 126 47.4 123.533 47.4 120.2C47.4 117.933 48.4 115.733 50.4 113.6C52.4 111.333 55.4 108.533 59.4 105.2C63.4 101.867 66.4 99.1333 68.4 97C70.4 94.7333 71.4 92.4667 71.4 90.2C68.8667 89.5333 65.0667 89.2 60 89.2C57.7333 89.2 54.3333 89.3333 49.8 89.6C45.8 89.8667 42.7333 90 40.6 90C35.8 90 31.6667 89.2 28.2 87.6C24.8667 86 23.2 83.9333 23.2 81.4C23.2 78.6 23.4667 76.4 24 74.8C24.5333 73.0667 25.5333 72 27 71.6C27.9333 71.2 29.6 71 32 71C38.5333 71 44.2 71.2 49 71.6C54.3333 71.8667 58.4 72 61.2 72L77.8 71.8C91.4 71.8 98.2 75.0667 98.2 81.6C98.2 86.5333 95.6667 92.1333 90.6 98.4C85.6667 104.533 79.8 110.067 73 115ZM166.184 75C166.184 81.5333 164.984 89.1333 162.584 97.8C160.318 106.333 156.984 116.867 152.584 129.4L147.984 143.2C150.251 143.6 152.584 143.8 154.984 143.8C159.118 143.8 165.318 143.4 173.584 142.6C181.851 141.8 187.784 141.4 191.384 141.4L191.184 119.4C190.918 104.2 190.784 93 190.784 85.8C190.784 76.3333 193.918 71.6 200.184 71.6C205.118 71.6 208.251 72.8667 209.584 75.4C211.051 77.9333 211.784 81.7333 211.784 86.8C211.784 92 211.384 100.067 210.584 111C210.451 113.133 210.251 116.667 209.984 121.6C209.718 126.533 209.584 130.8 209.584 134.4L209.784 140.8L213.784 140.6C216.984 140.333 219.451 140.2 221.184 140.2C224.384 140.2 227.451 141.267 230.384 143.4C233.318 145.4 234.784 147.8 234.784 150.6C234.784 153.933 234.251 156.533 233.184 158.4C232.251 160.267 231.118 161.2 229.784 161.2C227.518 161.2 224.651 160.933 221.184 160.4C220.384 160.4 219.184 160.333 217.584 160.2C215.984 159.933 214.451 159.8 212.984 159.8L209.584 160L209.784 187C209.784 189.8 208.851 191.933 206.984 193.4C205.118 194.867 202.984 195.6 200.584 195.6C197.651 195.6 195.051 194.667 192.784 192.8C190.518 190.933 189.384 188.6 189.384 185.8C189.384 176.867 189.518 169.867 189.784 164.8C189.918 163.6 189.984 162.133 189.984 160.4C185.984 160.267 179.051 160.733 169.184 161.8C159.851 162.867 152.784 163.4 147.984 163.4C141.851 163.4 136.651 162.533 132.384 160.8C128.251 159.067 126.184 156.333 126.184 152.6C126.184 149 126.918 144.6 128.384 139.4C129.851 134.2 132.051 127.2 134.984 118.4C136.318 114.933 137.318 112.067 137.984 109.8C140.384 103 142.184 97.2667 143.384 92.6C144.584 87.8 145.918 82 147.384 75.2C147.918 73.0667 149.051 71.4667 150.784 70.4C152.518 69.3333 154.518 68.8 156.784 68.8C159.184 68.8 161.318 69.4 163.184 70.6C165.184 71.6667 166.184 73.1333 166.184 75Z" fill="white"/>
</svg>

<svg xmlns="http://www.w3.org/2000/svg" width="250" height="250" fill="none" viewBox="0 0 250 250"><rect width="250" height="250" fill="#9c3" rx="30"/><path fill="#fff" d="M73 115q16.4 3.6 27.2 14.2t10.8 24.6q0 8.4-4 16.4-6.4 12.8-19.2 19.2-12.6 6.4-29.2 6.4-10.4 0-18.6-3.8-8.2-4-16.2-10.6-3-2.8-5.4-8-2.2-5.2-2.2-8.6 0-4.4 2.4-7 2.6-2.8 6.8-2.8t6.6 2 5.8 6.4q3.2 4.2 5.8 6.8 2.6 2.4 7 4.2t11 1.8q13.4 0 21-6.6t7.6-18.6q0-4.6-5-9.2-5-4.8-9.4-6.8-2.6-1.4-9.6-2.8-9.4-2.4-14.2-4.6-4.6-2.4-4.6-7.4 0-3.4 3-6.6 3-3.4 9-8.4t9-8.2q3-3.4 3-6.8-3.8-1-11.4-1-3.4 0-10.2.4-6 .4-9.2.4-7.2 0-12.4-2.4-5-2.4-5-6.2 0-4.2.8-6.6.8-2.6 3-3.2 1.4-.6 5-.6 9.8 0 17 .6 8 .4 12.2.4l16.6-.2q20.4 0 20.4 9.8 0 7.4-7.6 16.8-7.4 9.2-17.6 16.6m93.184-40q0 9.8-3.6 22.8-3.4 12.8-10 31.6l-4.6 13.8q3.4.6 7 .6 6.201 0 18.6-1.2t17.8-1.2l-.2-22q-.4-22.8-.4-33.6 0-14.2 9.4-14.2 7.4 0 9.4 3.8 2.2 3.8 2.2 11.4 0 7.8-1.2 24.2-.2 3.2-.6 10.6t-.4 12.8l.2 6.4 4-.2q4.8-.4 7.4-.4 4.8 0 9.2 3.2 4.4 3 4.4 7.2 0 5-1.6 7.8-1.4 2.8-3.4 2.8-3.4 0-8.6-.8-1.2 0-3.6-.2-2.4-.4-4.6-.4l-3.4.2.2 27q0 4.2-2.8 6.4t-6.4 2.2q-4.4 0-7.8-2.8t-3.4-7q0-13.4.4-21 .2-1.8.2-4.4-6-.2-20.8 1.4-14 1.6-21.2 1.6-9.2 0-15.6-2.6-6.2-2.6-6.2-8.2 0-5.4 2.2-13.2t6.6-21q2.001-5.2 3-8.6 3.6-10.2 5.4-17.2 1.8-7.2 4-17.4.8-3.2 3.4-4.8 2.601-1.6 6-1.6 3.6 0 6.4 1.8 3 1.6 3 4.4"/></svg>
